X:5765
T:Gan Ainm
R:Hornpipe
S:
H:
N:
D:concertina recital Milltown 1992
Z:Adrian Scahill
M:4/4
L:1/8
K:G
G2GA (3BAG EA|GBAG FGAe|defe dcBc|(3d^cd ed =cAFA|\
GFGA GBdB|cA{B}AG FGAB|de (3fed ^cAFG|1 AcGG G4:|2 AcGG G2 (3ABc||\
d2Bd ed (3BAG|A2FA AGFE|D2dB cAFA|GBAF GEED|\
(3GAG ED GBdB|cAAG FGAB|de (3fed ^cAFG|1 AcGG G2 (3ABc:|2 AcGG G4||
